packages/components/src/components/icon/cashier/ic-cashier-ethereum-dark.svg

<svg width="40" height="25" viewBox="0 0 40 25" fill="none" xmlns="http://www.w3.org/2000/svg">
<path d="M32.8477 11.6138C32.8896 11.6347 32.9212 11.6799 32.9212 11.7285V14.2495C32.9212 14.3156 32.8619 14.3642 32.8059 14.3642C32.7404 14.3642 32.6918 14.3156 32.6918 14.2495V13.7704C32.5003 14.1489 32.1636 14.4229 31.733 14.4229C31.0494 14.4229 30.6709 13.8297 30.6709 13.2009V11.7251C30.6709 11.6664 30.7195 11.6104 30.785 11.6104C30.8511 11.6104 30.8997 11.6698 30.8997 11.7251V13.2009C30.8997 13.6975 31.1811 14.1907 31.733 14.1907C32.5071 14.1907 32.6918 13.4647 32.6918 12.6624V11.7223C32.6918 11.6528 32.7647 11.5833 32.8477 11.615V11.6138ZM10.5452 11.5376C11.3192 11.5376 11.8786 12.2251 11.8825 12.9647C11.8825 13.0308 11.8266 13.0862 11.7571 13.0862H9.45537C9.51413 13.6557 9.94125 14.1766 10.5458 14.1766C10.9582 14.1766 11.2644 14.0201 11.4932 13.6907C11.5175 13.6557 11.5526 13.6314 11.5938 13.6314C11.6599 13.6314 11.7085 13.68 11.7085 13.7461C11.7085 13.7704 11.7017 13.7879 11.6916 13.8048C11.4588 14.2077 10.9966 14.406 10.5452 14.406C9.77119 14.406 9.21582 13.711 9.21582 12.9715C9.21582 12.2285 9.7678 11.5376 10.5452 11.5376ZM21.247 11.5376C22.0177 11.5376 22.577 12.2251 22.5838 12.9647C22.5838 13.0308 22.5284 13.0862 22.4589 13.0862H20.1566C20.216 13.6557 20.6425 14.1766 21.247 14.1766C21.66 14.1766 21.9657 14.0201 22.1951 13.6907C22.2194 13.6557 22.2538 13.6314 22.2956 13.6314C22.3617 13.6314 22.4103 13.68 22.4103 13.7461C22.4103 13.7704 22.403 13.7879 22.3928 13.8048C22.16 14.2077 21.6979 14.406 21.247 14.406C20.473 14.406 19.9171 13.711 19.9171 12.9715C19.9171 12.2285 20.4691 11.5376 21.247 11.5376ZM27.8618 11.5376C28.6358 11.5376 29.1952 12.2251 29.1985 12.9647C29.1985 13.0308 29.1426 13.0862 29.0737 13.0862H26.7714C26.8302 13.6557 27.2573 14.1766 27.8618 14.1766C28.2748 14.1766 28.5805 14.0201 28.8093 13.6907C28.8336 13.6557 28.8686 13.6314 28.9104 13.6314C28.976 13.6314 29.0251 13.68 29.0251 13.7461C29.0251 13.7704 29.0178 13.7879 29.0076 13.8048C28.7748 14.2077 28.3127 14.406 27.8618 14.406C27.0878 14.406 26.5319 13.711 26.5319 12.9715C26.5319 12.2285 27.0838 11.5376 27.8618 11.5376ZM13.934 10.5867C14.0068 10.5799 14.0622 10.6319 14.0622 10.7014V11.5941H14.6769C14.743 11.5941 14.7916 11.6528 14.7916 11.7082C14.7916 11.7743 14.743 11.8229 14.6769 11.8229H14.0588V14.25C14.0588 14.3094 14.0102 14.3647 13.9441 14.3647C13.878 14.3647 13.8294 14.3054 13.8294 14.25V11.8223H13.2362C13.1701 11.8223 13.1215 11.7737 13.1215 11.7076C13.1215 11.6489 13.1701 11.5929 13.2356 11.5929H13.8294V10.7076C13.8294 10.6489 13.8746 10.5929 13.934 10.5861V10.5867ZM16.3018 9.29517C16.3679 9.29517 16.4165 9.35392 16.4165 9.40986V12.1387C16.6142 11.7845 16.9685 11.5455 17.382 11.5455C18.0623 11.5455 18.4476 12.1387 18.4476 12.7675V14.2365C18.4476 14.302 18.3888 14.3506 18.3329 14.3506C18.2673 14.3506 18.2188 14.302 18.2188 14.2359V12.767C18.2188 12.2709 17.9374 11.7782 17.3854 11.7782C16.6769 11.7782 16.3713 12.3958 16.4131 13.0314C16.4131 13.0483 16.4199 13.1218 16.4199 13.1319V14.2325C16.4199 14.2918 16.3747 14.3472 16.3159 14.354C16.2425 14.3613 16.1871 14.3088 16.1871 14.2399V9.40929C16.1871 9.35053 16.2357 9.29517 16.3018 9.29517ZM37.6874 11.5449C38.3648 11.5449 38.7501 12.1325 38.7501 12.7568V14.2325C38.7501 14.2986 38.6913 14.3472 38.6354 14.3472C38.5693 14.3472 38.5207 14.2986 38.5207 14.2325V12.7562C38.5207 12.2596 38.2399 11.7737 37.6874 11.7737C36.993 11.7737 36.7292 12.5167 36.7292 13.093V14.232C36.7292 14.2981 36.6704 14.3466 36.6145 14.3466C36.5489 14.3466 36.4998 14.2981 36.4998 14.232V12.7562C36.4998 12.2596 36.219 11.7737 35.6664 11.7737C34.9653 11.7737 34.6771 12.3257 34.7014 13.0619C34.7014 13.0788 34.7082 13.1105 34.7014 13.1212V14.2286C34.7014 14.2879 34.6562 14.3433 34.5975 14.35C34.524 14.3574 34.4687 14.3048 34.4687 14.2353V11.7184C34.4687 11.659 34.5139 11.6037 34.5732 11.5969C34.6461 11.5895 34.7014 11.6421 34.7014 11.711V12.1314C34.8992 11.7771 35.2534 11.5443 35.6664 11.5443C36.1354 11.5443 36.4998 11.8432 36.6495 12.2771C36.8405 11.8466 37.2116 11.5443 37.6874 11.5443V11.5449ZM25.2844 11.5935C25.3437 11.5935 25.4098 11.6353 25.4098 11.7014C25.4098 11.7743 25.368 11.8161 25.3025 11.8263C24.6245 11.9268 24.3194 12.4794 24.3194 13.1218V14.2223C24.3194 14.2811 24.2742 14.337 24.2154 14.3438C24.142 14.3506 24.0866 14.2986 24.0866 14.2291V11.7184C24.0866 11.659 24.1318 11.6037 24.1911 11.5969C24.264 11.5895 24.3194 11.6421 24.3194 11.711V12.2218C24.5104 11.8986 24.8889 11.5929 25.2844 11.5929V11.5935ZM10.5447 11.7675C9.94069 11.7675 9.51356 12.2884 9.45424 12.8579H11.6351C11.5865 12.2884 11.1492 11.7675 10.5447 11.7675ZM21.2431 11.7675C20.6419 11.7675 20.2114 12.2884 20.1527 12.8579H22.3335C22.2843 12.2884 21.8476 11.7675 21.2431 11.7675ZM27.8612 11.7675C27.2567 11.7675 26.8296 12.2884 26.7708 12.8579H28.9517C28.9025 12.2884 28.4652 11.7675 27.8612 11.7675Z" fill="white"/>
<path d="M1.25 12.343L4.13196 14.0481V11.0339V7.55817L1.25 12.343Z" fill="#6E6E6E"/>
<path d="M4.13196 7.55817V11.0339V14.0481L7.0173 12.343L4.13196 7.55817Z" fill="#6E6E6E"/>
<path d="M1.25 12.8917L4.13196 16.9544V14.5928L1.25 12.8917Z" fill="#6E6E6E"/>
<path d="M4.13196 14.5928V16.9544L7.0173 12.8917L4.13196 14.5928Z" fill="#6E6E6E"/>
<path opacity="0.6" d="M4.13196 11.034L1.25 12.3431L4.13196 14.0482V12.3431V11.034Z" fill="#63688E"/>
<path opacity="0.6" d="M4.13196 11.034V12.3431V14.0482L7.0173 12.3431L4.13196 11.034Z" fill="#474A75"/>
</svg>

<svg width="40" height="25" fill="none" xmlns="http://www.w3.org/2000/svg"><path d="M32.848 11.614c.042.02.073.066.073.114v2.521c0 .067-.06.115-.115.115a.111.111 0 01-.114-.115v-.479c-.192.379-.528.653-.959.653-.684 0-1.062-.593-1.062-1.222v-1.476c0-.059.049-.115.114-.115.066 0 .115.06.115.115v1.476c0 .496.281.99.833.99.774 0 .959-.726.959-1.529v-.94c0-.07.073-.139.156-.107v-.001zm-22.303-.076c.774 0 1.334.687 1.338 1.427a.124.124 0 01-.126.121H9.455c.06.57.486 1.09 1.09 1.09.413 0 .72-.156.948-.485.024-.035.06-.06.1-.06.067 0 .116.049.116.115a.108.108 0 01-.017.059c-.233.403-.695.601-1.147.601-.774 0-1.33-.695-1.33-1.434 0-.743.553-1.434 1.33-1.434zm10.702 0c.77 0 1.33.687 1.337 1.427a.124.124 0 01-.125.121h-2.302c.059.57.485 1.09 1.09 1.09.413 0 .719-.156.948-.485.024-.035.059-.06.1-.06.067 0 .115.049.115.115a.107.107 0 01-.017.059c-.233.403-.695.601-1.146.601-.774 0-1.33-.695-1.33-1.434 0-.743.552-1.434 1.33-1.434zm6.615 0c.774 0 1.333.687 1.337 1.427a.124.124 0 01-.125.121H26.77c.06.57.486 1.09 1.09 1.09.414 0 .72-.156.948-.485.025-.035.06-.06.101-.06.066 0 .115.049.115.115a.107.107 0 01-.017.059c-.233.403-.695.601-1.146.601-.774 0-1.33-.695-1.33-1.434 0-.743.552-1.434 1.33-1.434zm-13.928-.951a.113.113 0 01.128.114v.893h.615c.066 0 .115.059.115.114a.111.111 0 01-.115.115h-.618v2.427c0 .06-.049.115-.115.115a.118.118 0 01-.115-.115v-2.428h-.593a.111.111 0 01-.115-.114c0-.06.05-.115.115-.115h.593v-.885c0-.06.046-.115.105-.122zm2.368-1.292c.066 0 .114.059.114.115v2.729c.198-.354.552-.593.966-.593.68 0 1.066.593 1.066 1.222v1.468a.118.118 0 01-.115.115.111.111 0 01-.114-.115v-1.469c0-.496-.282-.989-.834-.989-.708 0-1.014.618-.972 1.253 0 .017.007.09.007.1v1.101c0 .06-.045.115-.104.122a.113.113 0 01-.129-.114V9.41c0-.06.049-.115.115-.115zm21.385 2.25c.678 0 1.063.588 1.063 1.212v1.476a.118.118 0 01-.115.114.111.111 0 01-.114-.114v-1.477c0-.496-.281-.982-.834-.982-.694 0-.958.743-.958 1.319v1.139a.118.118 0 01-.114.115.112.112 0 01-.115-.115v-1.476c0-.496-.281-.982-.834-.982-.7 0-.989.552-.965 1.288 0 .017.007.049 0 .06v1.107c0 .059-.045.114-.104.121a.113.113 0 01-.128-.115v-2.517c0-.059.045-.114.104-.121a.113.113 0 01.128.114v.42c.198-.354.552-.587.965-.587.47 0 .834.3.984.733.19-.43.562-.733 1.037-.733zm-12.403.049c.06 0 .126.041.126.107 0 .073-.042.115-.108.125-.677.1-.983.653-.983 1.296v1.1a.123.123 0 01-.104.122.114.114 0 01-.128-.115v-2.51c0-.06.045-.115.104-.122a.113.113 0 01.128.114v.51c.191-.322.57-.628.965-.628zm-14.74.174c-.603 0-1.03.52-1.09 1.09h2.181c-.049-.57-.486-1.09-1.09-1.09zm10.7 0c-.602 0-1.033.52-1.091 1.09h2.18c-.049-.57-.485-1.09-1.09-1.09zm6.617 0c-.604 0-1.031.52-1.09 1.09h2.18c-.049-.57-.486-1.09-1.09-1.09z" fill="#fff"/><path d="M1.25 12.343l2.882 1.705v-6.49L1.25 12.343zM4.132 7.558v6.49l2.885-1.705-2.885-4.785zM1.25 12.892l2.882 4.062v-2.361L1.25 12.892zM4.132 14.593v2.361l2.885-4.062-2.885 1.7z" fill="#6E6E6E"/><path opacity=".6" d="M4.132 11.034l-2.882 1.31 2.882 1.704V11.034z" fill="#63688E"/><path opacity=".6" d="M4.132 11.034V14.048l2.885-1.705-2.885-1.309z" fill="#474A75"/></svg>
